images/arbeth_433cc8.svg

<svg height="438.75969" viewBox="0 0 400 438.75968992" width="400" xmlns="http://www.w3.org/2000/svg"><g fill-rule="evenodd"><path d="m194.419 9.518c-8.905.953-5.87-.57-51.473 25.837-20.551 11.9-53.76 31.125-73.799 42.723-20.038 11.597-37.556 21.792-38.927 22.655-6.97 4.384-12.915 12.25-15.475 20.474-1.839 5.912-1.746.315-1.652 98.619l.085 90.058 12.972-19.934 12.972-19.935-.104-70.138-.103-70.138 1.144-2.311c2.115-4.272-9.059 2.53 90.639-55.175 29.845-17.275 56.147-32.499 58.449-33.833 6.104-3.535 9.886-4.214 13.811-2.477.786.347 34.868 19.856 75.739 43.352 80.006 45.994 76.241 43.706 78.256 47.565l1.031 1.977.091 87.132c.098 93.489.166 89.389-1.536 92.596-1.436 2.708-2.021 3.114-16.694 11.589-7.589 4.383-14.496 8.432-15.349 8.998-1.675 1.111-12.543 7.394-14.574 8.426-1.902.967-52.339 30.204-52.868 30.647-.396.332-51.559 30.052-53.583 31.126-1.327.704-4.265.993-6.488.638-1.967-.315-3.996-1.43-34.162-18.782-25.949-14.927-32.142-18.371-32.448-18.044-.521.554-12.932 21.672-12.803 21.782.232.198 62.292 35.843 64.477 37.033 7.847 4.273 19.039 5.181 28.341 2.298 2.061-.639 15.744-8.445 81.051-46.243l78.571-45.475 2.692-2.636c5.512-5.395 9.055-11.949 10.781-19.94.748-3.467.862-180.8.118-184.556-1.884-9.513-7.762-18.804-15.229-24.075-3.231-2.281-153.038-88.29-155.469-89.261-5.529-2.206-12.649-3.197-18.484-2.572" fill="#69b2e5"/><path d="m157.255 130.877c-17.295 1.327-31.15 7.193-38.576 16.333-.935 1.151-19.837 30.209-42.005 64.573s-45.558 70.547-51.978 80.407l-11.673 17.926.011 7.345.012 7.345 20.09 11.551c11.049 6.352 20.236 11.55 20.415 11.55.31 0 135.425-216.408 135.227-216.588-.132-.119-24.492-.792-26.607-.734-.938.025-3.151.157-4.916.292m66.502.592-17.329.159-68.216 112.558c-37.519 61.907-68.233 112.729-68.253 112.939-.046.477 47.283 27.774 47.598 27.452.159-.164 136.622-231.504 148.705-252.096l.774-1.318-12.976.073c-7.136.041-20.773.146-30.303.233" fill="#fbfbfb"/><path d="m194.264 35.9c-1.186.432-94.496 54.279-143.491 82.805-8.833 5.142-9.542 5.776-11.078 9.88-.623 1.664-.626 2.108-.548 71.33l.078 69.656 38.585-59.824c21.222-32.904 39.169-60.592 39.881-61.53 6.59-8.675 17.768-14.345 33.162-16.821 4.472-.719 32.123-.951 36.647-.307l1.608.229-67.577 108.37c-37.168 59.603-67.575 108.44-67.572 108.527.013.336 15.624 9.087 15.729 8.816.062-.158 30.857-51.008 68.435-113l68.322-112.713 30.3-.079c24.825-.065 30.271-.006 30.144.326-.086.222-30.74 52.282-68.12 115.687-37.381 63.406-67.912 115.336-67.847 115.401.808.808 63.722 36.621 64.882 36.933 1.75.47 4.42.527 6.129.13 2.623-.609 55.12-31.441 54.69-32.119-.217-.341-13.127-20.61-28.69-45.043l-28.296-44.422 17.286-29.376c9.508-16.157 17.44-29.547 17.627-29.756.256-.286 9.36 13.837 36.771 57.045 20.037 31.583 36.993 58.298 37.679 59.366l1.248 1.942 7.33-4.253c4.116-2.388 7.245-4.391 7.136-4.568-.106-.173-17.955-29.04-39.663-64.147-21.708-35.108-39.47-63.97-39.47-64.137 0-.326 30.441-52.09 30.554-51.956.037.044 18.378 28.615 40.759 63.491 22.38 34.876 40.817 63.545 40.971 63.709.168.177.248-29.216.2-72.885l-.081-73.182-1.144-2.309c-.63-1.271-1.746-2.893-2.481-3.605-1.105-1.072-143.574-83.429-150.793-87.169-2.091-1.083-6.913-1.312-9.302-.442" fill="#2c344c"/><path d="m260.775 174.137c-8.271 14.067-15.039 25.816-15.039 26.109 0 .995 79.024 128.454 79.524 128.266 1.416-.534 28.548-16.484 29.369-17.265 3.206-3.051 3.511-4.912 3.511-21.463v-13.752l-40.867-63.654c-22.477-35.009-41-63.691-41.163-63.736s-7.063 11.428-15.335 25.495m-27.984 47.776c-1.095 1.847-8.999 15.254-17.566 29.792l-15.575 26.434 28.625 44.956c18.1 28.426 28.769 44.903 29.018 44.814.659-.238 51.98-29.985 52.407-30.377.307-.281-73.374-117.345-74.821-118.875-.054-.057-.993 1.409-2.088 3.256" fill="#3288c5"/><path d="m197.442 35.263c.554.069 1.461.069 2.015 0 .555-.069.101-.125-1.007-.125-1.109 0-1.562.056-1.008.125m156.046 87.315c0 .053.454.506 1.008 1.007l1.008.911-.911-1.008c-.849-.939-1.105-1.15-1.105-.91m-195.426 8.183c.384.074 1.012.074 1.395 0 .384-.073.07-.134-.697-.134-.768 0-1.082.061-.698.134m12.558.01c.81.063 2.136.063 2.946 0 .81-.064.147-.117-1.473-.117s-2.283.053-1.473.117m-131.71 38.066c0 20.977.037 29.604.082 19.172.045-10.433.045-27.596 0-38.14s-.082-2.009-.082 18.968m143.493-37.756c.81.064 2.136.064 2.946 0s.147-.117-1.473-.117-2.283.053-1.473.117m24.001.314c-.13.211 12.778.208 28.325-.007 3.325-.046-1.655-.116-11.067-.155-9.413-.038-17.179.034-17.258.162m-7.877 268.819c.299.078.787.078 1.085 0 .299-.078.055-.142-.542-.142s-.841.064-.543.142" fill="#6c7788"/></g></svg>

<svg id="svg" version="1.1" xmlns="http://www.w3.org/2000/svg" xmlns:xlink="http://www.w3.org/1999/xlink" width="400" height="438.7596899224806" viewBox="0, 0, 400,438.7596899224806"><g id="svgg"><path id="path0" d="M194.419 9.518 C 185.514 10.471,188.549 8.948,142.946 35.355 C 122.395 47.255,89.186 66.480,69.147 78.078 C 49.109 89.675,31.591 99.870,30.220 100.733 C 23.250 105.117,17.305 112.983,14.745 121.207 C 12.906 127.119,12.999 121.522,13.093 219.826 L 13.178 309.884 26.150 289.950 L 39.122 270.015 39.018 199.877 L 38.915 129.739 40.059 127.428 C 42.174 123.156,31.000 129.958,130.698 72.253 C 160.543 54.978,186.845 39.754,189.147 38.420 C 195.251 34.885,199.033 34.206,202.958 35.943 C 203.744 36.290,237.826 55.799,278.697 79.295 C 358.703 125.289,354.938 123.001,356.953 126.860 L 357.984 128.837 358.075 215.969 C 358.173 309.458,358.241 305.358,356.539 308.565 C 355.103 311.273,354.518 311.679,339.845 320.154 C 332.256 324.537,325.349 328.586,324.496 329.152 C 322.821 330.263,311.953 336.546,309.922 337.578 C 308.020 338.545,257.583 367.782,257.054 368.225 C 256.658 368.557,205.495 398.277,203.471 399.351 C 202.144 400.055,199.206 400.344,196.983 399.989 C 195.016 399.674,192.987 398.559,162.821 381.207 C 136.872 366.280,130.679 362.836,130.373 363.163 C 129.852 363.717,117.441 384.835,117.570 384.945 C 117.802 385.143,179.862 420.788,182.047 421.978 C 189.894 426.251,201.086 427.159,210.388 424.276 C 212.449 423.637,226.132 415.831,291.439 378.033 L 370.010 332.558 372.702 329.922 C 378.214 324.527,381.757 317.973,383.483 309.982 C 384.231 306.515,384.345 129.182,383.601 125.426 C 381.717 115.913,375.839 106.622,368.372 101.351 C 365.141 99.070,215.334 13.061,212.903 12.090 C 207.374 9.884,200.254 8.893,194.419 9.518 " stroke="none" fill="#69b2e5" fill-rule="evenodd"></path><path id="path1" d="M157.255 130.877 C 139.960 132.204,126.105 138.070,118.679 147.210 C 117.744 148.361,98.842 177.419,76.674 211.783 C 54.506 246.147,31.116 282.330,24.696 292.190 L 13.023 310.116 13.034 317.461 L 13.046 324.806 33.136 336.357 C 44.185 342.709,53.372 347.907,53.551 347.907 C 53.861 347.907,188.976 131.499,188.778 131.319 C 188.646 131.200,164.286 130.527,162.171 130.585 C 161.233 130.610,159.020 130.742,157.255 130.877 M223.757 131.469 L 206.428 131.628 138.212 244.186 C 100.693 306.093,69.979 356.915,69.959 357.125 C 69.913 357.602,117.242 384.899,117.557 384.577 C 117.716 384.413,254.179 153.073,266.262 132.481 L 267.036 131.163 254.060 131.236 C 246.924 131.277,233.287 131.382,223.757 131.469 " stroke="none" fill="#fbfbfb" fill-rule="evenodd"></path><path id="path2" d="M194.264 35.900 C 193.078 36.332,99.768 90.179,50.773 118.705 C 41.940 123.847,41.231 124.481,39.695 128.585 C 39.072 130.249,39.069 130.693,39.147 199.915 L 39.225 269.571 77.810 209.747 C 99.032 176.843,116.979 149.155,117.691 148.217 C 124.281 139.542,135.459 133.872,150.853 131.396 C 155.325 130.677,182.976 130.445,187.500 131.089 L 189.108 131.318 121.531 239.688 C 84.363 299.291,53.956 348.128,53.959 348.215 C 53.972 348.551,69.583 357.302,69.688 357.031 C 69.750 356.873,100.545 306.023,138.123 244.031 L 206.445 131.318 236.745 131.239 C 261.570 131.174,267.016 131.233,266.889 131.565 C 266.803 131.787,236.149 183.847,198.769 247.252 C 161.388 310.658,130.857 362.588,130.922 362.653 C 131.730 363.461,194.644 399.274,195.804 399.586 C 197.554 400.056,200.224 400.113,201.933 399.716 C 204.556 399.107,257.053 368.275,256.623 367.597 C 256.406 367.256,243.496 346.987,227.933 322.554 L 199.637 278.132 216.923 248.756 C 226.431 232.599,234.363 219.209,234.550 219.000 C 234.806 218.714,243.910 232.837,271.321 276.045 C 291.358 307.628,308.314 334.343,309.000 335.411 L 310.248 337.353 317.578 333.100 C 321.694 330.712,324.823 328.709,324.714 328.532 C 324.608 328.359,306.759 299.492,285.051 264.385 C 263.343 229.277,245.581 200.415,245.581 200.248 C 245.581 199.922,276.022 148.158,276.135 148.292 C 276.172 148.336,294.513 176.907,316.894 211.783 C 339.274 246.659,357.711 275.328,357.865 275.492 C 358.033 275.669,358.113 246.276,358.065 202.607 L 357.984 129.425 356.840 127.116 C 356.210 125.845,355.094 124.223,354.359 123.511 C 353.254 122.439,210.785 40.082,203.566 36.342 C 201.475 35.259,196.653 35.030,194.264 35.900 " stroke="none" fill="#2c344c" fill-rule="evenodd"></path><path id="path3" d="M260.775 174.137 C 252.504 188.204,245.736 199.953,245.736 200.246 C 245.736 201.241,324.760 328.700,325.260 328.512 C 326.676 327.978,353.808 312.028,354.629 311.247 C 357.835 308.196,358.140 306.335,358.140 289.784 L 358.140 276.032 317.273 212.378 C 294.796 177.369,276.273 148.687,276.110 148.642 C 275.947 148.597,269.047 160.070,260.775 174.137 M232.791 221.913 C 231.696 223.760,223.792 237.167,215.225 251.705 L 199.650 278.139 228.275 323.095 C 246.375 351.521,257.044 367.998,257.293 367.909 C 257.952 367.671,309.273 337.924,309.700 337.532 C 310.007 337.251,236.326 220.187,234.879 218.657 C 234.825 218.600,233.886 220.066,232.791 221.913 " stroke="none" fill="#3288c5" fill-rule="evenodd"></path><path id="path4" d="M197.442 35.263 C 197.996 35.332,198.903 35.332,199.457 35.263 C 200.012 35.194,199.558 35.138,198.450 35.138 C 197.341 35.138,196.888 35.194,197.442 35.263 M353.488 122.578 C 353.488 122.631,353.942 123.084,354.496 123.585 L 355.504 124.496 354.593 123.488 C 353.744 122.549,353.488 122.338,353.488 122.578 M158.062 130.761 C 158.446 130.835,159.074 130.835,159.457 130.761 C 159.841 130.688,159.527 130.627,158.760 130.627 C 157.992 130.627,157.678 130.688,158.062 130.761 M170.620 130.771 C 171.430 130.834,172.756 130.834,173.566 130.771 C 174.376 130.707,173.713 130.654,172.093 130.654 C 170.473 130.654,169.810 130.707,170.620 130.771 M38.910 168.837 C 38.910 189.814,38.947 198.441,38.992 188.009 C 39.037 177.576,39.037 160.413,38.992 149.869 C 38.947 139.325,38.910 147.860,38.910 168.837 M182.403 131.081 C 183.213 131.145,184.539 131.145,185.349 131.081 C 186.159 131.017,185.496 130.964,183.876 130.964 C 182.256 130.964,181.593 131.017,182.403 131.081 M206.404 131.395 C 206.274 131.606,219.182 131.603,234.729 131.388 C 238.054 131.342,233.074 131.272,223.662 131.233 C 214.249 131.195,206.483 131.267,206.404 131.395 M198.527 400.214 C 198.826 400.292,199.314 400.292,199.612 400.214 C 199.911 400.136,199.667 400.072,199.070 400.072 C 198.473 400.072,198.229 400.136,198.527 400.214 " stroke="none" fill="#6c7788" fill-rule="evenodd"></path></g></svg>
